data/styles/clear/style-clear/symbols/kiosk-m.svg

<svg height="24" viewBox="0 0 24 24" width="24"><g fill="none" fill-rule="evenodd"><circle cx="12" cy="12" fill="#fff" opacity=".6" r="12"/><circle cx="12" cy="12" fill="#8c5f93" r="11"/><path d="m5 6v1.84615385h14v-1.84615385zm1.86666667 12h10.26666663v-8.30769231h-10.26666663zm5.60000003-6.4615385h2.8v4.6153847h-2.8zm-3.73333337 0h2.79999997v4.6153847h-2.79999997z" fill="#fff"/></g></svg>

<svg width="24" height="24" viewBox="0 0 24 24">
  <g fill="none" fill-rule="evenodd">
    <circle cx="12" cy="12" r="12" fill="#FFF" opacity=".6"/>
    <circle cx="12" cy="12" r="11" fill="#8C5F93"/>
    <path fill="#FFF" d="M5,6 L5,7.84615385 L19,7.84615385 L19,6 L5,6 L5,6 Z M6.86666667,18 L17.1333333,18 L17.1333333,9.69230769 L6.86666667,9.69230769 L6.86666667,18 L6.86666667,18 Z M12.4666667,11.5384615 L15.2666667,11.5384615 L15.2666667,16.1538462 L12.4666667,16.1538462 L12.4666667,11.5384615 L12.4666667,11.5384615 Z M8.73333333,11.5384615 L11.5333333,11.5384615 L11.5333333,16.1538462 L8.73333333,16.1538462 L8.73333333,11.5384615 L8.73333333,11.5384615 Z"/>
  </g>
</svg>
